;FLAVOR:Marlin
;TIME:7136
;Filament used: 8.51169m
;Layer height: 0.2
;MINX:50.002
;MINY:33.5
;MINZ:0.3
;MAXX:130
;MAXY:128.5
;MAXZ:17.9
;TARGET_MACHINE.NAME:Unknown
;Generated with Cura_SteamEngine 5.8.1
M140 S60
M105
M190 S60
M104 S200
M105
M109 S200
M82 ;absolute extrusion mode
G28 ;Home
G1 Z15.0 F6000 ;Move the platform down 15mm
;Prime the extruder
G92 E0
G1 F200 E3
G92 E0
G92 E0
G92 E0
G1 F1500 E-6.5
;LAYER_COUNT:89
;LAYER:0
M106 S255
G0 F3600 X50.922 Y35.54 Z0.3
;TYPE:SKIRT
G1 F1500 E0
G1 F1800 X52.04 Y34.422 E0.07888
G1 X53.465 Y33.698 E0.15862
G1 X55.001 Y33.5 E0.23589
G1 X125.518 Y33.505 E3.754
G1 X126.6 Y33.741 E3.80925
G1 X127.954 Y34.416 E3.88473
G1 X129.072 Y35.534 E3.96361
G1 X129.801 Y36.962 E4.0436
G1 X129.976 Y38.143 E4.10316
G1 X130 Y124.04 E8.38858
G1 X129.727 Y125.18 E8.44706
G1 X129.07 Y126.468 E8.5192
G1 X127.96 Y127.578 E8.59752
G1 X126.535 Y128.302 E8.67726
G1 X124.999 Y128.5 E8.75452
G1 X54.482 Y128.495 E12.27263
G1 X53.4 Y128.259 E12.32788
G1 X52.046 Y127.584 E12.40336
G1 X50.922 Y126.46 E12.48267
G1 X50.199 Y125.037 E12.5623
G1 X50.002 Y123.534 E12.63792
G1 X50.035 Y38.067 E16.90189
G1 X50.212 Y36.937 E16.95895
G1 X50.922 Y35.54 E17.03714
G0 F3600 X51.25 Y35.778
G1 F1800 X52.278 Y34.75 E17.10967
G1 X53.584 Y34.086 E17.18276
G1 X55.001 Y33.9 E17.25406
G1 X125.474 Y33.905 E20.76997
G1 X126.466 Y34.121 E20.82062
G1 X127.717 Y34.745 E20.89037
G1 X128.745 Y35.773 E20.9629
G1 X129.414 Y37.084 E21.03633
G1 X129.58 Y38.202 E21.09272
G1 X129.6 Y123.993 E25.37285
G1 X129.349 Y125.041 E25.42661
G1 X128.743 Y126.229 E25.49315
G1 X127.722 Y127.25 E25.56519
G1 X126.416 Y127.914 E25.63828
G1 X124.999 Y128.1 E25.70958
G1 X54.526 Y128.095 E29.22549
G1 X53.534 Y127.879 E29.27615
G1 X52.283 Y127.255 E29.34589
G1 X51.25 Y126.222 E29.41877
G1 X50.586 Y124.915 E29.49191
G1 X50.402 Y123.534 E29.56142
G1 X50.43 Y38.129 E33.82229
G1 X50.597 Y37.063 E33.87613
G1 X51.25 Y35.778 E33.94804
G0 F3600 X51.578 Y36.016
G1 F1800 X52.516 Y35.078 E34.01422
G1 X53.706 Y34.473 E34.08082
G1 X55.001 Y34.3 E34.146
G1 X125.43 Y34.305 E37.65972
G1 X126.332 Y34.501 E37.70577
G1 X127.48 Y35.074 E37.76978
G1 X128.418 Y36.012 E37.83596
G1 X129.027 Y37.206 E37.90283
G1 X129.184 Y38.261 E37.95605
G1 X129.2 Y123.946 E42.23089
G1 X128.971 Y124.902 E42.27993
G1 X128.416 Y125.99 E42.34087
G1 X127.484 Y126.922 E42.40663
G1 X126.294 Y127.527 E42.47323
G1 X124.999 Y127.7 E42.53841
G1 X54.57 Y127.695 E46.05213
G1 X53.668 Y127.499 E46.09818
G1 X52.52 Y126.926 E46.16219
G1 X51.578 Y125.984 E46.22865
G1 X50.973 Y124.793 E46.2953
G1 X50.802 Y123.534 E46.35869
G1 X50.825 Y38.191 E50.61647
G1 X50.982 Y37.189 E50.66707
G1 X51.578 Y36.016 E50.73271
G0 F3600 X51.906 Y36.254
G1 F1800 X52.754 Y35.406 E50.79254
G1 X53.828 Y34.86 E50.85265
G1 X55.001 Y34.7 E50.91171
G1 X125.386 Y34.705 E54.42323
G1 X126.199 Y34.882 E54.46474
G1 X127.242 Y35.402 E54.52289
G1 X128.091 Y36.251 E54.58279
G1 X128.64 Y37.328 E54.6431
G1 X128.788 Y38.32 E54.69314
G1 X128.8 Y123.899 E58.96269
G1 X128.593 Y124.763 E59.00702
G1 X128.089 Y125.751 E59.06235
G1 X127.246 Y126.594 E59.12183
G1 X126.172 Y127.14 E59.18194
G1 X124.999 Y127.3 E59.241
G1 X54.614 Y127.295 E62.75252
G1 X53.801 Y127.118 E62.79403
G1 X52.758 Y126.598 E62.85218
G1 X51.906 Y125.746 E62.91229
G1 X51.36 Y124.671 E62.97244
G1 X51.202 Y123.534 E63.02971
G1 X51.22 Y38.253 E67.2844
G1 X51.367 Y37.315 E67.33177
G1 X51.906 Y36.254 E67.39114
G0 F3600 X52.234 Y36.492
G1 F1800 X52.992 Y35.734 E67.44462
G1 X53.95 Y35.247 E67.49824
G1 X55.001 Y35.1 E67.55118
G1 X125.342 Y35.105 E71.06051
G1 X126.065 Y35.262 E71.09742
G1 X127.005 Y35.731 E71.14983
G1 X127.764 Y36.49 E71.20338
G1 X128.253 Y37.45 E71.25713
G1 X128.392 Y38.379 E71.304
G1 X128.4 Y123.852 E75.56826
G1 X128.215 Y124.624 E75.60787
G1 X127.762 Y125.512 E75.6576
G1 X127.008 Y126.266 E75.7108
G1 X126.05 Y126.753 E75.76442
G1 X124.999 Y126.9 E75.81736
G1 X54.658 Y126.895 E79.32669
G1 X53.935 Y126.738 E79.3636
G1 X52.995 Y126.269 E79.41601
G1 X52.234 Y125.508 E79.4697
G1 X51.747 Y124.549 E79.52336
G1 X51.602 Y123.534 E79.57452
G1 X51.615 Y38.315 E83.82611
G1 X51.752 Y37.441 E83.87025
G1 X52.234 Y36.492 E83.92335
G0 F3600 X52.562 Y36.73
G1 F1800 X53.23 Y36.062 E83.97048
G1 X54.072 Y35.634 E84.0176
G1 X55.001 Y35.5 E84.06443
G1 X125.299 Y35.505 E87.57161
G1 X125.931 Y35.642 E87.60387
G1 X126.768 Y36.06 E87.65055
G1 X127.438 Y36.73 E87.69782
G1 X127.866 Y37.571 E87.7449
G1 X127.996 Y38.438 E87.78864
G1 X128 Y123.805 E92.04762
G1 X127.837 Y124.485 E92.0825
G1 X127.435 Y125.273 E92.12664
G1 X126.77 Y125.938 E92.17356
G1 X125.928 Y126.366 E92.22068
G1 X124.999 Y126.5 E92.26751
G1 X54.701 Y126.495 E95.77469
G1 X54.069 Y126.358 E95.80695
G1 X53.232 Y125.94 E95.85363
G1 X52.562 Y125.27 E95.9009
G1 X52.134 Y124.427 E95.94807
G1 X52.002 Y123.534 E95.9931
G1 X52.01 Y38.377 E100.2416
G1 X52.137 Y37.567 E100.28251
G1 X52.562 Y36.73 E100.32934
G0 F3600 X53.218 Y37.206
G1 F1800 X53.706 Y36.718 E100.36377
G1 X54.319 Y36.407 E100.39806
G1 X55.001 Y36.3 E100.43251
G1 X125.256 Y36.305 E103.93754
G1 X125.662 Y36.402 E103.95837
G1 X126.294 Y36.718 E103.99362
G1 X126.782 Y37.206 E104.02805
G1 X127.093 Y37.819 E104.06234
G1 X127.2 Y38.498 E104.09664
G1 X127.2 Y123.711 E108.34793
G1 X127.081 Y124.207 E108.37338
G1 X126.781 Y124.795 E108.40631
G1 X126.294 Y125.282 E108.44067
G1 X125.681 Y125.593 E108.47497
G1 X124.999 Y125.7 E108.50941
G1 X54.744 Y125.695 E112.01444
G1 X54.338 Y125.598 E112.03527
G1 X53.706 Y125.282 E112.07052
G1 X53.218 Y124.794 E112.10495
G1 X52.905 Y124.177 E112.13947
G1 X52.802 Y123.534 E112.17196
G1 X52.8 Y38.501 E116.41427
G1 X52.907 Y37.819 E116.44871
G1 X53.218 Y37.206 E116.48301
G0 F3600 X52.89 Y36.968
G1 F1800 X53.468 Y36.39 E116.52379
G1 X54.194 Y36.021 E116.56442
G1 X55.001 Y35.9 E116.60513
G1 X125.256 Y35.905 E120.11016
G1 X125.797 Y36.022 E120.13778
G1 X126.531 Y36.389 E120.17872
G1 X127.11 Y36.968 E120.21957
G1 X127.479 Y37.694 E120.2602
G1 X127.6 Y38.498 E120.30077
G1 X127.6 Y123.758 E124.5544
G1 X127.459 Y124.346 E124.58457
G1 X127.108 Y125.034 E124.62311
G1 X126.532 Y125.61 E124.66375
G1 X125.806 Y125.979 E124.70438
G1 X124.999 Y126.1 E124.74509
G1 X54.744 Y126.095 E128.25012
G1 X54.203 Y125.978 E128.27774
G1 X53.469 Y125.611 E128.31868
G1 X52.89 Y125.032 E128.35953
G1 X52.519 Y124.302 E128.40038
G1 X52.402 Y123.534 E128.43914
G1 X52.405 Y38.439 E132.68455
G1 X52.522 Y37.693 E132.72222
G1 X52.89 Y36.968 E132.76279
G1 F1500 E126.26279
;MESH:Tapa.STL
G0 F3600 X53.419 Y38.532
G0 X72.518 Y86.582
G0 X72.99 Y92.849
G0 X72.569 Y92.849
;TYPE:WALL-INNER
G1 F1500 E132.76279
G1 F1800 X72.32 Y93.042 E132.7785
G1 X72.088 Y93.088 E132.7903
G1 X69.148 Y93.088 E132.93698
G1 X68.916 Y93.042 E132.94878
G1 X68.667 Y92.848 E132.96453
G1 X68.548 Y92.574 E132.97943
G1 X68.548 Y87.008 E133.25712
G1 X68.657 Y86.663 E133.27517
G1 X68.8 Y86.519 E133.2853
G1 X69.026 Y86.409 E133.29784
G1 X72.123 Y86.408 E133.45235
G1 X72.429 Y86.514 E133.4685
G1 X72.574 Y86.655 E133.47859
G1 X72.688 Y87.008 E133.4971
G1 X72.688 Y92.573 E133.77474
G1 X72.569 Y92.849 E133.78973
G0 F3600 X72.99 Y92.849
G0 X73.402 Y98.398
G0 X77.534 Y98.47
G0 X77.534 Y98.045
G1 F1800 X77.353 Y98.14 E133.79993
G1 X77.168 Y98.168 E133.80927
G1 X74.228 Y98.168 E133.95594
G1 X74.043 Y98.14 E133.96528
G1 X73.786 Y97.975 E133.98051
G1 X73.675 Y97.803 E133.99073
G1 X73.63 Y97.622 E134.00003
G1 X73.628 Y87.008 E134.52957
G1 X73.742 Y86.655 E134.54807
G1 X73.887 Y86.514 E134.55816
G1 X74.196 Y86.408 E134.57446
G1 X79.777 Y86.411 E134.8529
G1 X79.959 Y86.462 E134.86233
G1 X80.211 Y86.68 E134.87895
G1 X80.308 Y86.911 E134.89145
G1 X80.306 Y92.541 E135.17233
G1 X80.212 Y92.815 E135.18679
G1 X80.117 Y92.928 E135.19415
G1 X79.909 Y93.054 E135.20628
G1 X79.708 Y93.088 E135.21645
G1 X77.768 Y93.088 E135.31324
G1 X77.766 Y97.622 E135.53944
G1 X77.721 Y97.802 E135.5487
G1 X77.534 Y98.045 E135.564
G0 F3600 X77.534 Y98.47
G0 X67.258 Y98.47
G0 X67.258 Y98.114
G1 F1800 X67.008 Y98.168 E135.57676
G1 X64.015 Y98.166 E135.72608
G1 X63.765 Y98.087 E135.73916
G1 X63.612 Y97.958 E135.74914
G1 X63.5 Y97.763 E135.76036
G1 X63.468 Y97.568 E135.77022
G1 X63.474 Y86.922 E136.30135
G1 X63.603 Y86.627 E136.31742
G1 X63.818 Y86.462 E136.33094
G1 X64.023 Y86.409 E136.3415
G1 X67.085 Y86.412 E136.49427
G1 X67.356 Y86.519 E136.5088
G1 X67.499 Y86.663 E136.51893
G1 X67.608 Y87.008 E136.53698
G1 X67.606 Y97.622 E137.06651
G1 X67.561 Y97.802 E137.07577
G1 X67.414 Y98.011 E137.08852
G1 X67.258 Y98.114 E137.09784
G0 F3600 X67.258 Y98.47
G0 X67.838 Y99.082
G0 X68.322 Y111.298
G0 X68.798 Y110.957
G1 F1800 X68.656 Y110.812 E137.10797
G1 X68.55 Y110.52 E137.12347
G1 X68.548 Y99.908 E137.6529
G1 X68.621 Y99.62 E137.66772
G1 X68.742 Y99.465 E137.67753
G1 X68.963 Y99.336 E137.6903
G1 X69.148 Y99.308 E137.69964
G1 X72.088 Y99.308 E137.84631
G1 X72.273 Y99.336 E137.85565
G1 X72.454 Y99.431 E137.86585
G1 X72.641 Y99.673 E137.8811
G1 X72.686 Y99.854 E137.89041
G1 X72.688 Y104.388 E138.11661
G1 X78.708 Y104.388 E138.41695
G1 X78.71 Y99.854 E138.64315
G1 X78.755 Y99.673 E138.65246
G1 X78.942 Y99.431 E138.66771
G1 X79.123 Y99.336 E138.67791
G1 X79.308 Y99.308 E138.68725
G1 X82.302 Y99.31 E138.83662
G1 X82.571 Y99.402 E138.8508
G1 X82.707 Y99.52 E138.85979
G1 X82.81 Y99.695 E138.86992
G1 X82.848 Y99.908 E138.88071
G1 X82.848 Y101.848 E138.9775
G1 X102.588 Y101.848 E139.96233
G1 X102.82 Y101.893 E139.97412
G1 X103.068 Y102.087 E139.98983
G1 X103.188 Y102.448 E140.00881
G1 X103.186 Y110.52 E140.41152
G1 X103.112 Y110.762 E140.42415
G1 X102.987 Y110.917 E140.43408
G1 X102.716 Y111.068 E140.44956
G1 X69.076 Y111.068 E142.12787
G1 X68.798 Y110.957 E142.1428
G0 F3600 X68.798 Y111.37
G0 X63.766 Y111.37
G0 X63.766 Y110.988
G1 F1800 X63.559 Y110.788 E142.15716
G1 X63.474 Y110.554 E142.16958
G1 X63.468 Y99.817 E142.70525
G1 X63.546 Y99.61 E142.71629
G1 X63.765 Y99.389 E142.73181
G1 X64.015 Y99.31 E142.74489
G1 X67.008 Y99.308 E142.89421
G1 X67.258 Y99.362 E142.90697
G1 X67.414 Y99.465 E142.9163
G1 X67.535 Y99.62 E142.92611
G1 X67.608 Y99.908 E142.94093
G1 X67.606 Y110.52 E143.47037
G1 X67.5 Y110.812 E143.48587
G1 X67.358 Y110.957 E143.49599
G1 X67.112 Y111.068 E143.50945
G1 X64.004 Y111.065 E143.66451
G1 X63.766 Y110.988 E143.67699
G0 F3600 X63.766 Y111.37
G0 X67.838 Y111.298
G0 X68.322 Y99.082
G0 X83.078 Y99.082
G0 X83.078 Y101.139
G0 X90.228 Y101.01
G0 X90.228 Y100.588
G1 F1800 X89.951 Y100.708 E143.69205
G1 X86.928 Y100.708 E143.84287
G1 X86.568 Y100.588 E143.8618
G1 X86.374 Y100.339 E143.87755
G1 X86.328 Y100.108 E143.8893
G1 X86.333 Y94.543 E144.16694
G1 X86.411 Y94.321 E144.17868
G1 X86.634 Y94.104 E144.19421
G1 X86.876 Y94.03 E144.20683
G1 X89.868 Y94.028 E144.3561
G1 X90.156 Y94.101 E144.37092
G1 X90.311 Y94.222 E144.38074
G1 X90.414 Y94.378 E144.39006
G1 X90.468 Y94.628 E144.40282
G1 X90.468 Y100.108 E144.67622
G1 X90.422 Y100.339 E144.68797
G1 X90.228 Y100.588 E144.70372
G0 F3600 X90.228 Y101.01
G0 X90.698 Y93.802
G0 X90.156 Y93.015
G1 F1800 X89.868 Y93.088 E144.71854
G1 X86.876 Y93.086 E144.86781
G1 X86.634 Y93.012 E144.88044
G1 X86.411 Y92.795 E144.89596
G1 X86.334 Y92.576 E144.90754
G1 X86.328 Y86.911 E145.19017
G1 X86.425 Y86.68 E145.20267
G1 X86.598 Y86.506 E145.21491
G1 X86.859 Y86.411 E145.22877
G1 X89.959 Y86.414 E145.38343
G1 X90.265 Y86.557 E145.40028
G1 X90.404 Y86.737 E145.41163
G1 X90.464 Y86.932 E145.42181
G1 X90.468 Y92.579 E145.70354
G1 X90.381 Y92.801 E145.71543
G1 X90.156 Y93.015 E145.73092
G0 F3600 X90.156 Y93.39
G0 X93.722 Y100.938
G0 X97.848 Y101.01
G0 X97.848 Y100.588
G1 F1800 X97.571 Y100.708 E145.74598
G1 X94.548 Y100.708 E145.8968
G1 X94.188 Y100.588 E145.91573
G1 X93.994 Y100.339 E145.93148
G1 X93.948 Y100.108 E145.94323
G1 X93.948 Y94.628 E146.21663
G1 X94.002 Y94.378 E146.22939
G1 X94.155 Y94.174 E146.24211
G1 X94.463 Y94.028 E146.25912
G1 X97.567 Y94.028 E146.41398
G1 X97.848 Y94.148 E146.42922
G1 X97.968 Y94.268 E146.43769
G1 X98.056 Y94.433 E146.44702
G1 X98.088 Y94.628 E146.45688
G1 X98.088 Y100.108 E146.73027
G1 X98.042 Y100.339 E146.74203
G1 X97.848 Y100.588 E146.75777
G0 F3600 X97.848 Y101.01
G0 X101.898 Y95.93
G0 X101.898 Y95.565
G1 F1800 X101.672 Y95.366 E146.7728
G1 X101.595 Y95.209 E146.78152
G1 X101.568 Y95.028 E146.79065
G1 X101.572 Y86.932 E147.19456
G1 X101.632 Y86.737 E147.20474
G1 X101.872 Y86.485 E147.2221
G1 X102.099 Y86.411 E147.23401
G1 X112.735 Y86.408 E147.76465
G1 X113.061 Y86.527 E147.78196
G1 X113.215 Y86.698 E147.79344
G1 X113.3 Y86.934 E147.80596
G1 X113.3 Y92.62 E148.08963
G1 X113.128 Y92.909 E148.10641
G1 X112.98 Y93.019 E148.11561
G1 X112.766 Y93.088 E148.12683
G1 X108.248 Y93.088 E148.35223
G1 X108.248 Y95.028 E148.44902
G1 X108.202 Y95.259 E148.46077
G1 X108.008 Y95.508 E148.47652
G1 X107.731 Y95.628 E148.49158
G1 X102.084 Y95.623 E148.77331
G1 X101.898 Y95.565 E148.78303
G0 F3600 X101.898 Y95.93
G0 X103.911 Y102.239
G0 X103.902 Y111.298
G0 X106.442 Y113.838
G0 X110.56 Y113.91
G0 X110.56 Y113.495
G1 F1800 X110.286 Y113.604 E148.79774
G1 X107.191 Y113.604 E148.95215
G1 X107.044 Y113.565 E148.95974
G1 X106.818 Y113.406 E148.97352
G1 X106.668 Y113.083 E148.99129
G1 X106.668 Y111.068 E149.09182
G1 X104.655 Y111.068 E149.19225
G1 X104.421 Y110.985 E149.20464
G1 X104.204 Y110.762 E149.22016
G1 X104.13 Y110.52 E149.23279
G1 X104.128 Y99.908 E149.76222
G1 X104.158 Y99.718 E149.77182
G1 X104.354 Y99.438 E149.78887
G1 X104.524 Y99.343 E149.79858
G1 X104.728 Y99.308 E149.80891
G1 X106.668 Y99.308 E149.9057
G1 X106.668 Y97.368 E150.00248
G1 X106.714 Y97.137 E150.01424
G1 X106.908 Y96.888 E150.02998
G1 X107.185 Y96.768 E150.04504
G1 X110.208 Y96.768 E150.19586
G1 X110.407 Y96.801 E150.20593
G1 X110.575 Y96.892 E150.21546
G1 X110.775 Y97.17 E150.23254
G1 X110.808 Y97.368 E150.24256
G1 X110.808 Y113.13 E151.02893
G1 X110.688 Y113.368 E151.04223
G1 X110.56 Y113.495 E151.05122
G0 F3600 X110.56 Y113.91
G0 X115.547 Y111.37
G0 X115.547 Y111.01
G1 F1800 X115.334 Y111.067 E151.06222
G1 X112.348 Y111.068 E151.21119
G1 X112.116 Y111.022 E151.22299
G1 X111.867 Y110.828 E151.23874
G1 X111.748 Y110.554 E151.25365
G1 X111.748 Y99.908 E151.78478
G1 X111.868 Y99.547 E151.80376
G1 X112.117 Y99.354 E151.81947
G1 X112.348 Y99.308 E151.83122
G1 X115.362 Y99.312 E151.98159
G1 X115.635 Y99.418 E151.9962
G1 X115.779 Y99.561 E152.00633
G1 X115.888 Y99.908 E152.02447
G1 X115.886 Y110.52 E152.55391
G1 X115.78 Y110.812 E152.56941
G1 X115.547 Y111.01 E152.58466
G0 F3600 X115.547 Y111.37
G0 X120.631 Y111.37
G0 X120.631 Y111.008
G1 F1800 X120.448 Y111.063 E152.5942
G1 X117.356 Y111.068 E152.74846
G1 X117.078 Y110.957 E152.76339
G1 X116.936 Y110.812 E152.77352
G1 X116.83 Y110.52 E152.78901
G1 X116.828 Y99.908 E153.31845
G1 X116.937 Y99.561 E153.33659
G1 X117.081 Y99.418 E153.34672
G1 X117.362 Y99.311 E153.36172
G1 X120.448 Y99.313 E153.51568
G1 X120.631 Y99.368 E153.52521
G1 X120.821 Y99.513 E153.53714
G1 X120.968 Y99.794 E153.55296
G1 X120.968 Y110.582 E154.09118
G1 X120.821 Y110.863 E154.107
G1 X120.631 Y111.008 E154.11892
G0 F3600 X120.631 Y111.37
G0 X124.931 Y124.601
G0 X124.955 Y124.9
G1 F1800 X125.428 Y124.822 E154.14284
G1 X125.816 Y124.627 E154.1645
G1 X126.128 Y124.315 E154.18652
G1 X126.333 Y123.91 E154.20916
G1 X126.4 Y123.636 E154.22324
G1 X126.4 Y38.541 E158.46864
G1 X126.322 Y38.068 E158.49256
G1 X126.128 Y37.682 E158.51411
G1 X125.815 Y37.372 E158.53609
G1 X125.411 Y37.164 E158.55876
G1 X125.138 Y37.1 E158.57275
G1 X55.039 Y37.1 E162.07
G1 X54.568 Y37.174 E162.09379
G1 X54.182 Y37.372 E162.11543
G1 X53.872 Y37.682 E162.13731
G1 X53.675 Y38.068 E162.15893
G1 X53.6 Y38.539 E162.18272
