;FLAVOR:Marlin
;TIME:7262
;Filament used: 7.86742m
;Layer height: 0.2
;MINX:50.002
;MINY:35.75
;MINZ:0.3
;MAXX:130
;MAXY:130.75
;MAXZ:13.5
;TARGET_MACHINE.NAME:Unknown
;Generated with Cura_SteamEngine 5.8.1
M140 S60
M105
M190 S60
M104 S200
M105
M109 S200
M82 ;absolute extrusion mode
G28 ;Home
G1 Z15.0 F6000 ;Move the platform down 15mm
;Prime the extruder
G92 E0
G1 F200 E3
G92 E0
G92 E0
G92 E0
G1 F1500 E-6.5
;LAYER_COUNT:67
;LAYER:0
M106 S255
G0 F3600 X50.922 Y37.79 Z0.3
;TYPE:SKIRT
G1 F1500 E0
G1 F1800 X52.04 Y36.672 E0.07888
G1 X53.465 Y35.948 E0.15862
G1 X55.001 Y35.75 E0.23589
G1 X125.518 Y35.755 E3.754
G1 X126.6 Y35.991 E3.80925
G1 X127.954 Y36.666 E3.88473
G1 X129.072 Y37.784 E3.96361
G1 X129.801 Y39.212 E4.0436
G1 X129.976 Y40.393 E4.10316
G1 X130 Y126.29 E8.38858
G1 X129.727 Y127.43 E8.44706
G1 X129.07 Y128.718 E8.5192
G1 X127.96 Y129.828 E8.59752
G1 X126.535 Y130.552 E8.67726
G1 X124.999 Y130.75 E8.75452
G1 X54.482 Y130.745 E12.27263
G1 X53.4 Y130.509 E12.32788
G1 X52.046 Y129.834 E12.40336
G1 X50.922 Y128.71 E12.48267
G1 X50.199 Y127.287 E12.5623
G1 X50.002 Y125.784 E12.63792
G1 X50.035 Y40.317 E16.90189
G1 X50.212 Y39.187 E16.95895
G1 X50.922 Y37.79 E17.03714
G0 F3600 X51.25 Y38.028
G1 F1800 X52.278 Y37 E17.10967
G1 X53.584 Y36.336 E17.18276
G1 X55.001 Y36.15 E17.25406
G1 X125.474 Y36.155 E20.76997
G1 X126.466 Y36.371 E20.82062
G1 X127.717 Y36.995 E20.89037
G1 X128.745 Y38.023 E20.9629
G1 X129.414 Y39.334 E21.03633
G1 X129.58 Y40.452 E21.09272
G1 X129.6 Y126.243 E25.37285
G1 X129.349 Y127.291 E25.42661
G1 X128.743 Y128.479 E25.49315
G1 X127.722 Y129.5 E25.56519
G1 X126.416 Y130.164 E25.63828
G1 X124.999 Y130.35 E25.70958
G1 X54.526 Y130.345 E29.22549
G1 X53.534 Y130.129 E29.27615
G1 X52.283 Y129.505 E29.34589
G1 X51.25 Y128.472 E29.41877
G1 X50.586 Y127.165 E29.49191
G1 X50.402 Y125.784 E29.56142
G1 X50.43 Y40.379 E33.82229
G1 X50.597 Y39.313 E33.87613
G1 X51.25 Y38.028 E33.94804
G0 F3600 X51.578 Y38.266
G1 F1800 X52.516 Y37.328 E34.01422
G1 X53.706 Y36.723 E34.08082
G1 X55.001 Y36.55 E34.146
G1 X125.43 Y36.555 E37.65972
G1 X126.332 Y36.751 E37.70577
G1 X127.48 Y37.324 E37.76978
G1 X128.418 Y38.262 E37.83596
G1 X129.027 Y39.456 E37.90283
G1 X129.184 Y40.511 E37.95605
G1 X129.2 Y126.196 E42.23089
G1 X128.971 Y127.152 E42.27993
G1 X128.416 Y128.24 E42.34087
G1 X127.484 Y129.172 E42.40663
G1 X126.294 Y129.777 E42.47323
G1 X124.999 Y129.95 E42.53841
G1 X54.57 Y129.945 E46.05213
G1 X53.668 Y129.749 E46.09818
G1 X52.52 Y129.176 E46.16219
G1 X51.578 Y128.234 E46.22865
G1 X50.973 Y127.043 E46.2953
G1 X50.802 Y125.784 E46.35869
G1 X50.825 Y40.441 E50.61647
G1 X50.982 Y39.439 E50.66707
G1 X51.578 Y38.266 E50.73271
G0 F3600 X51.906 Y38.504
G1 F1800 X52.754 Y37.656 E50.79254
G1 X53.828 Y37.11 E50.85265
G1 X55.001 Y36.95 E50.91171
G1 X125.386 Y36.955 E54.42323
G1 X126.199 Y37.132 E54.46474
G1 X127.242 Y37.652 E54.52289
G1 X128.091 Y38.501 E54.58279
G1 X128.64 Y39.578 E54.6431
G1 X128.788 Y40.57 E54.69314
G1 X128.8 Y126.149 E58.96269
G1 X128.593 Y127.013 E59.00702
G1 X128.089 Y128.001 E59.06235
G1 X127.246 Y128.844 E59.12183
G1 X126.172 Y129.39 E59.18194
G1 X124.999 Y129.55 E59.241
G1 X54.614 Y129.545 E62.75252
G1 X53.801 Y129.368 E62.79403
G1 X52.758 Y128.848 E62.85218
G1 X51.906 Y127.996 E62.91229
G1 X51.36 Y126.921 E62.97244
G1 X51.202 Y125.784 E63.02971
G1 X51.22 Y40.503 E67.2844
G1 X51.367 Y39.565 E67.33177
G1 X51.906 Y38.504 E67.39114
G0 F3600 X52.234 Y38.742
G1 F1800 X52.992 Y37.984 E67.44462
G1 X53.95 Y37.497 E67.49824
G1 X55.001 Y37.35 E67.55118
G1 X125.342 Y37.355 E71.06051
G1 X126.065 Y37.512 E71.09742
G1 X127.005 Y37.981 E71.14983
G1 X127.764 Y38.74 E71.20338
G1 X128.253 Y39.7 E71.25713
G1 X128.392 Y40.629 E71.304
G1 X128.4 Y126.102 E75.56826
G1 X128.215 Y126.874 E75.60787
G1 X127.762 Y127.762 E75.6576
G1 X127.008 Y128.516 E75.7108
G1 X126.05 Y129.003 E75.76442
G1 X124.999 Y129.15 E75.81736
G1 X54.658 Y129.145 E79.32669
G1 X53.935 Y128.988 E79.3636
G1 X52.995 Y128.519 E79.41601
G1 X52.234 Y127.758 E79.4697
G1 X51.747 Y126.799 E79.52336
G1 X51.602 Y125.784 E79.57452
G1 X51.615 Y40.565 E83.82611
G1 X51.752 Y39.691 E83.87025
G1 X52.234 Y38.742 E83.92335
G0 F3600 X52.562 Y38.98
G1 F1800 X53.23 Y38.312 E83.97048
G1 X54.072 Y37.884 E84.0176
G1 X55.001 Y37.75 E84.06443
G1 X125.299 Y37.755 E87.57161
G1 X125.931 Y37.892 E87.60387
G1 X126.768 Y38.31 E87.65055
G1 X127.438 Y38.98 E87.69782
G1 X127.866 Y39.821 E87.7449
G1 X127.996 Y40.688 E87.78864
G1 X128 Y126.055 E92.04762
G1 X127.837 Y126.735 E92.0825
G1 X127.435 Y127.523 E92.12664
G1 X126.77 Y128.188 E92.17356
G1 X125.928 Y128.616 E92.22068
G1 X124.999 Y128.75 E92.26751
G1 X54.701 Y128.745 E95.77469
G1 X54.069 Y128.608 E95.80695
G1 X53.232 Y128.19 E95.85363
G1 X52.562 Y127.52 E95.9009
G1 X52.134 Y126.677 E95.94807
G1 X52.002 Y125.784 E95.9931
G1 X52.01 Y40.627 E100.2416
G1 X52.137 Y39.817 E100.28251
G1 X52.562 Y38.98 E100.32934
G0 F3600 X53.218 Y39.456
G1 F1800 X53.706 Y38.968 E100.36377
G1 X54.319 Y38.657 E100.39806
G1 X55.001 Y38.55 E100.43251
G1 X125.256 Y38.555 E103.93754
G1 X125.662 Y38.652 E103.95837
G1 X126.294 Y38.968 E103.99362
G1 X126.782 Y39.456 E104.02805
G1 X127.093 Y40.069 E104.06234
G1 X127.2 Y40.748 E104.09664
G1 X127.2 Y125.961 E108.34793
G1 X127.081 Y126.457 E108.37338
G1 X126.781 Y127.045 E108.40631
G1 X126.294 Y127.532 E108.44067
G1 X125.681 Y127.843 E108.47497
G1 X124.999 Y127.95 E108.50941
G1 X54.744 Y127.945 E112.01444
G1 X54.338 Y127.848 E112.03527
G1 X53.706 Y127.532 E112.07052
G1 X53.218 Y127.044 E112.10495
G1 X52.905 Y126.427 E112.13947
G1 X52.802 Y125.784 E112.17196
G1 X52.8 Y40.751 E116.41427
G1 X52.907 Y40.069 E116.44871
G1 X53.218 Y39.456 E116.48301
G0 F3600 X52.89 Y39.218
G1 F1800 X53.468 Y38.64 E116.52379
G1 X54.194 Y38.271 E116.56442
G1 X55.001 Y38.15 E116.60513
G1 X125.256 Y38.155 E120.11016
G1 X125.797 Y38.272 E120.13778
G1 X126.531 Y38.639 E120.17872
G1 X127.11 Y39.218 E120.21957
G1 X127.479 Y39.944 E120.2602
G1 X127.6 Y40.748 E120.30077
G1 X127.6 Y126.008 E124.5544
G1 X127.459 Y126.596 E124.58457
G1 X127.108 Y127.284 E124.62311
G1 X126.532 Y127.86 E124.66375
G1 X125.806 Y128.229 E124.70438
G1 X124.999 Y128.35 E124.74509
G1 X54.744 Y128.345 E128.25012
G1 X54.203 Y128.228 E128.27774
G1 X53.469 Y127.861 E128.31868
G1 X52.89 Y127.282 E128.35953
G1 X52.519 Y126.552 E128.40038
G1 X52.402 Y125.784 E128.43914
G1 X52.405 Y40.689 E132.68455
G1 X52.522 Y39.943 E132.72222
G1 X52.89 Y39.218 E132.76279
G1 F1500 E126.26279
;MESH:Base.STL
G0 F3600 X53.419 Y40.782
G0 X124.931 Y126.851
G0 X124.957 Y127.148
;TYPE:WALL-INNER
G1 F1500 E132.76279
G1 F1800 X125.428 Y127.073 E132.78658
G1 X125.815 Y126.875 E132.80827
G1 X126.127 Y126.566 E132.83018
G1 X126.333 Y126.159 E132.85293
G1 X126.4 Y125.884 E132.86705
G1 X126.4 Y40.789 E137.11246
G1 X126.322 Y40.32 E137.13618
G1 X126.127 Y39.933 E137.1578
G1 X125.815 Y39.62 E137.17985
G1 X125.41 Y39.415 E137.2025
G1 X125.136 Y39.348 E137.21657
G1 X55.04 Y39.348 E140.71367
G1 X54.568 Y39.422 E140.73751
G1 X54.183 Y39.619 E140.75908
G1 X53.872 Y39.933 E140.78113
G1 X53.674 Y40.32 E140.80282
G1 X53.6 Y40.788 E140.82646
G1 X53.6 Y125.708 E145.06314
G1 X53.674 Y126.177 E145.08682
G1 X53.872 Y126.567 E145.10864
G1 X54.181 Y126.876 E145.13045
G1 X54.585 Y127.081 E145.15305
G1 X54.864 Y127.148 E145.16736
G1 X124.957 Y127.148 E148.66432
G0 F3600 X124.988 Y127.548
;TYPE:WALL-OUTER
G1 F1800 X125.553 Y127.459 E148.69285
G1 X126.053 Y127.203 E148.72088
G1 X126.455 Y126.804 E148.74914
G1 X126.711 Y126.298 E148.77743
G1 X126.8 Y125.932 E148.79622
G1 X126.8 Y40.757 E153.04562
G1 X126.707 Y40.195 E153.07404
G1 X126.455 Y39.695 E153.10197
G1 X126.053 Y39.292 E153.13037
G1 X125.55 Y39.037 E153.1585
G1 X125.184 Y38.948 E153.1773
G1 X55.008 Y38.948 E156.67839
G1 X54.443 Y39.037 E156.70693
G1 X53.944 Y39.292 E156.73488
G1 X53.544 Y39.695 E156.76321
G1 X53.289 Y40.195 E156.79121
G1 X53.2 Y40.756 E156.81955
G1 X53.2 Y125.74 E161.05942
G1 X53.289 Y126.301 E161.08776
G1 X53.544 Y126.805 E161.11594
G1 X53.943 Y127.204 E161.14409
G1 X54.446 Y127.459 E161.17223
G1 X54.816 Y127.548 E161.19121
G1 X124.988 Y127.548 E164.69211
G0 F3600 X125.185 Y127.517
G0 X124.931 Y126.768
;TYPE:SKIN
G1 F1800 X54.909 Y126.768 E168.18552
G1 X54.715 Y126.719 E168.1955
G1 X54.407 Y126.563 E168.21273
G1 X54.18 Y126.336 E168.22874
G1 X54.037 Y126.057 E168.24438
G1 X53.98 Y125.684 E168.26321
G1 X53.98 Y40.808 E172.49769
G1 X54.037 Y40.439 E172.51632
G1 X54.181 Y40.159 E172.53203
G1 X54.408 Y39.928 E172.54818
G1 X54.686 Y39.785 E172.56378
G1 X55.064 Y39.728 E172.58285
G1 X125.085 Y39.728 E176.07621
G1 X125.283 Y39.774 E176.08636
G1 X125.584 Y39.928 E176.10322
G1 X125.815 Y40.159 E176.11952
G1 X125.955 Y40.439 E176.13514
G1 X126.02 Y40.814 E176.15413
G1 X126.02 Y125.831 E180.39564
G1 X125.971 Y126.03 E180.40587
G1 X125.816 Y126.336 E180.42298
G1 X125.585 Y126.563 E180.43914
G1 X125.305 Y126.707 E180.45485
G1 X124.931 Y126.768 E180.47375
G0 F3600 X54.311 Y126.153
G1 F1800 X54.579 Y126.421 E180.49266
G0 F3600 X55.292 Y126.568
G1 F1800 X54.18 Y125.456 E180.57112
G0 F3600 X54.18 Y124.891
G1 F1800 X55.857 Y126.568 E180.68944
G0 F3600 X56.423 Y126.568
G1 F1800 X54.18 Y124.325 E180.8477
G0 F3600 X54.18 Y123.759
G1 F1800 X56.989 Y126.568 E181.04589
G0 F3600 X57.554 Y126.568
G1 F1800 X54.18 Y123.194 E181.28394
G0 F3600 X54.18 Y122.628
G1 F1800 X58.12 Y126.568 E181.56193
G0 F3600 X58.686 Y126.568
G1 F1800 X54.18 Y122.062 E181.87985
G0 F3600 X54.18 Y121.497
G1 F1800 X59.251 Y126.568 E182.23764
G0 F3600 X59.817 Y126.568
G1 F1800 X54.18 Y120.931 E182.63536
G0 F3600 X54.18 Y120.365
G1 F1800 X60.383 Y126.568 E183.07301
G0 F3600 X60.948 Y126.568
G1 F1800 X54.18 Y119.799 E183.55057
G0 F3600 X54.18 Y119.234
G1 F1800 X61.514 Y126.568 E184.06802
G0 F3600 X62.08 Y126.568
G1 F1800 X54.18 Y118.668 E184.62541
G0 F3600 X54.18 Y118.102
G1 F1800 X62.645 Y126.568 E185.2227
G0 F3600 X63.211 Y126.568
G1 F1800 X54.18 Y117.537 E185.85988
G0 F3600 X54.18 Y116.971
G1 F1800 X63.777 Y126.568 E186.537
G0 F3600 X64.342 Y126.568
G1 F1800 X54.18 Y116.405 E187.25402
G0 F3600 X54.18 Y115.84
G1 F1800 X64.908 Y126.568 E188.01094
G0 F3600 X65.474 Y126.568
G1 F1800 X54.18 Y115.274 E188.80779
G0 F3600 X54.18 Y114.708
G1 F1800 X66.04 Y126.568 E189.64458
G0 F3600 X66.605 Y126.568
G1 F1800 X54.18 Y114.143 E190.52123
G0 F3600 X54.18 Y113.577
G1 F1800 X67.171 Y126.568 E191.43782
G0 F3600 X67.737 Y126.568
G1 F1800 X54.18 Y113.011 E192.39434
G0 F3600 X54.18 Y112.446
G1 F1800 X68.302 Y126.568 E193.39072
G0 F3600 X68.868 Y126.568
G1 F1800 X54.18 Y111.88 E194.42704
G0 F3600 X54.18 Y111.314
G1 F1800 X69.434 Y126.568 E195.50329
G0 F3600 X69.999 Y126.568
G1 F1800 X54.18 Y110.748 E196.61944
G0 F3600 X54.18 Y110.183
G1 F1800 X70.565 Y126.568 E197.77549
G0 F3600 X71.131 Y126.568
G1 F1800 X54.18 Y109.617 E198.97147
G0 F3600 X54.18 Y109.051
G1 F1800 X71.696 Y126.568 E200.20736
G0 F3600 X72.262 Y126.568
G1 F1800 X54.18 Y108.486 E201.48314
G0 F3600 X54.18 Y107.92
G1 F1800 X72.828 Y126.568 E202.79886
G0 F3600 X73.393 Y126.568
G1 F1800 X54.18 Y107.354 E204.15447
G0 F3600 X54.18 Y106.789
G1 F1800 X73.959 Y126.568 E205.54999
G0 F3600 X74.525 Y126.568
G1 F1800 X54.18 Y106.223 E206.98544
G0 F3600 X54.18 Y105.657
G1 F1800 X75.09 Y126.568 E208.46079
G0 F3600 X75.656 Y126.568
G1 F1800 X54.18 Y105.092 E209.97604
G0 F3600 X54.18 Y104.526
G1 F1800 X76.222 Y126.568 E211.53122
G0 F3600 X76.788 Y126.568
G1 F1800 X54.18 Y103.96 E213.12633
G0 F3600 X54.18 Y103.395
G1 F1800 X77.353 Y126.568 E214.76131
G0 F3600 X77.919 Y126.568
G1 F1800 X54.18 Y102.829 E216.43623
G0 F3600 X54.18 Y102.263
G1 F1800 X78.485 Y126.568 E218.15108
G0 F3600 X79.05 Y126.568
G1 F1800 X54.18 Y101.698 E219.90579
G0 F3600 X54.18 Y101.132
G1 F1800 X79.616 Y126.568 E221.70044
G0 F3600 X80.182 Y126.568
G1 F1800 X54.18 Y100.566 E223.53502
G0 F3600 X54.18 Y100
G1 F1800 X80.747 Y126.568 E225.4095
G0 F3600 X81.313 Y126.568
G1 F1800 X54.18 Y99.435 E227.32388
G0 F3600 X54.18 Y98.869
G1 F1800 X81.879 Y126.568 E229.27819
G0 F3600 X82.444 Y126.568
G1 F1800 X54.18 Y98.303 E231.27241
G0 F3600 X54.18 Y97.738
G1 F1800 X83.01 Y126.568 E233.30652
G0 F3600 X83.576 Y126.568
G1 F1800 X54.18 Y97.172 E235.38057
G0 F3600 X54.18 Y96.606
G1 F1800 X84.141 Y126.568 E237.49451
G0 F3600 X84.707 Y126.568
G1 F1800 X54.18 Y96.041 E239.64836
G0 F3600 X54.18 Y95.475
G1 F1800 X85.273 Y126.568 E241.84214
G0 F3600 X85.839 Y126.568
G1 F1800 X54.18 Y94.909 E244.07585
G0 F3600 X54.18 Y94.344
G1 F1800 X86.404 Y126.568 E246.34943
G0 F3600 X86.97 Y126.568
G1 F1800 X54.18 Y93.778 E248.66294
G0 F3600 X54.18 Y93.212
G1 F1800 X87.536 Y126.568 E251.01638
G0 F3600 X88.101 Y126.568
G1 F1800 X54.18 Y92.647 E253.40969
G0 F3600 X54.18 Y92.081
G1 F1800 X88.667 Y126.568 E255.84294
G0 F3600 X89.233 Y126.568
G1 F1800 X54.18 Y91.515 E258.31612
G0 F3600 X54.18 Y90.949
G1 F1800 X89.798 Y126.568 E260.82919
G0 F3600 X90.364 Y126.568
G1 F1800 X54.18 Y90.384 E263.38217
G0 F3600 X54.18 Y89.818
G1 F1800 X90.93 Y126.568 E265.97508
G0 F3600 X91.495 Y126.568
G1 F1800 X54.18 Y89.252 E268.60789
G0 F3600 X54.18 Y88.687
G1 F1800 X92.061 Y126.568 E271.2806
G0 F3600 X92.627 Y126.568
G1 F1800 X54.18 Y88.121 E273.99324
G0 F3600 X54.18 Y87.555
G1 F1800 X93.192 Y126.568 E276.74579
G0 F3600 X93.758 Y126.568
G1 F1800 X54.18 Y86.99 E279.53823
G0 F3600 X54.18 Y86.424
G1 F1800 X94.324 Y126.568 E282.3706
G0 F3600 X94.889 Y126.568
G1 F1800 X54.18 Y85.858 E285.24288
G0 F3600 X54.18 Y85.293
G1 F1800 X95.455 Y126.568 E288.15505
G0 F3600 X96.021 Y126.568
G1 F1800 X54.18 Y84.727 E291.10716
G0 F3600 X54.18 Y84.161
G1 F1800 X96.587 Y126.568 E294.09921
G0 F3600 X97.152 Y126.568
G1 F1800 X54.18 Y83.596 E297.13111
G0 F3600 X54.18 Y83.03
G1 F1800 X97.718 Y126.568 E300.20295
G0 F3600 X98.284 Y126.568
G1 F1800 X54.18 Y82.464 E303.31473
G0 F3600 X54.18 Y81.899
G1 F1800 X98.849 Y126.568 E306.46637
G0 F3600 X99.415 Y126.568
G1 F1800 X54.18 Y81.333 E309.65794
G0 F3600 X54.18 Y80.767
G1 F1800 X99.981 Y126.568 E312.88945
G0 F3600 X100.546 Y126.568
G1 F1800 X54.18 Y80.201 E316.16086
G0 F3600 X54.18 Y79.636
G1 F1800 X101.112 Y126.568 E319.47216
G0 F3600 X101.678 Y126.568
G1 F1800 X54.18 Y79.07 E322.8234
G0 F3600 X54.18 Y78.504
G1 F1800 X102.243 Y126.568 E326.21454
G0 F3600 X102.809 Y126.568
G1 F1800 X54.18 Y77.939 E329.64558
G0 F3600 X54.18 Y77.373
G1 F1800 X103.375 Y126.568 E333.11655
G0 F3600 X103.94 Y126.568
G1 F1800 X54.18 Y76.807 E336.62743
G0 F3600 X54.18 Y76.242
G1 F1800 X104.506 Y126.568 E340.1782
G0 F3600 X105.072 Y126.568
G1 F1800 X54.18 Y75.676 E343.7689
G0 F3600 X54.18 Y75.11
G1 F1800 X105.638 Y126.568 E347.39954
G0 F3600 X106.203 Y126.568
G1 F1800 X54.18 Y74.545 E351.07005
G0 F3600 X54.18 Y73.979
G1 F1800 X106.769 Y126.568 E354.78048
G0 F3600 X107.335 Y126.568
G1 F1800 X54.18 Y73.413 E358.53086
G0 F3600 X54.18 Y72.848
G1 F1800 X107.9 Y126.568 E362.32109
G0 F3600 X108.466 Y126.568
G1 F1800 X54.18 Y72.282 E366.15126
G0 F3600 X54.18 Y71.716
G1 F1800 X109.032 Y126.568 E370.02137
G0 F3600 X109.597 Y126.568
G1 F1800 X54.18 Y71.15 E373.93137
G0 F3600 X54.18 Y70.585
G1 F1800 X110.163 Y126.568 E377.88127
G0 F3600 X110.729 Y126.568
G1 F1800 X54.18 Y70.019 E381.87111
G0 F3600 X54.18 Y69.453
G1 F1800 X111.294 Y126.568 E385.90085
G0 F3600 X111.86 Y126.568
G1 F1800 X54.18 Y68.888 E389.97048
G0 F3600 X54.18 Y68.322
G1 F1800 X112.426 Y126.568 E394.08005
G0 F3600 X112.991 Y126.568
G1 F1800 X54.18 Y67.756 E398.22952
G0 F3600 X54.18 Y67.191
G1 F1800 X113.557 Y126.568 E402.41889
G0 F3600 X114.123 Y126.568
G1 F1800 X54.18 Y66.625 E406.64819
G0 F3600 X54.18 Y66.059
G1 F1800 X114.688 Y126.568 E410.91739
G0 F3600 X115.254 Y126.568
