;FLAVOR:Marlin
;TIME:7126
;Filament used: 8.49697m
;Layer height: 0.2
;MINX:50.002
;MINY:33.5
;MINZ:0.3
;MAXX:130
;MAXY:128.5
;MAXZ:17.9
;TARGET_MACHINE.NAME:Unknown
;Generated with Cura_SteamEngine 5.8.1
M140 S60
M105
M190 S60
M104 S200
M105
M109 S200
M82 ;absolute extrusion mode
G28 ;Home
G1 Z15.0 F6000 ;Move the platform down 15mm
;Prime the extruder
G92 E0
G1 F200 E3
G92 E0
G92 E0
G92 E0
G1 F1500 E-6.5
;LAYER_COUNT:89
;LAYER:0
M106 S255
G0 F3600 X50.922 Y35.54 Z0.3
;TYPE:SKIRT
G1 F1500 E0
G1 F1800 X52.04 Y34.422 E0.07888
G1 X53.465 Y33.698 E0.15862
G1 X55.001 Y33.5 E0.23589
G1 X125.518 Y33.505 E3.754
G1 X126.6 Y33.741 E3.80925
G1 X127.954 Y34.416 E3.88473
G1 X129.072 Y35.534 E3.96361
G1 X129.801 Y36.962 E4.0436
G1 X129.976 Y38.143 E4.10316
G1 X130 Y124.04 E8.38858
G1 X129.727 Y125.18 E8.44706
G1 X129.07 Y126.468 E8.5192
G1 X127.96 Y127.578 E8.59752
G1 X126.535 Y128.302 E8.67726
G1 X124.999 Y128.5 E8.75452
G1 X54.482 Y128.495 E12.27263
G1 X53.4 Y128.259 E12.32788
G1 X52.046 Y127.584 E12.40336
G1 X50.922 Y126.46 E12.48267
G1 X50.199 Y125.037 E12.5623
G1 X50.002 Y123.534 E12.63792
G1 X50.035 Y38.067 E16.90189
G1 X50.212 Y36.937 E16.95895
G1 X50.922 Y35.54 E17.03714
G0 F3600 X51.25 Y35.778
G1 F1800 X52.278 Y34.75 E17.10967
G1 X53.584 Y34.086 E17.18276
G1 X55.001 Y33.9 E17.25406
G1 X125.474 Y33.905 E20.76997
G1 X126.466 Y34.121 E20.82062
G1 X127.717 Y34.745 E20.89037
G1 X128.745 Y35.773 E20.9629
G1 X129.414 Y37.084 E21.03633
G1 X129.58 Y38.202 E21.09272
G1 X129.6 Y123.993 E25.37285
G1 X129.349 Y125.041 E25.42661
G1 X128.743 Y126.229 E25.49315
G1 X127.722 Y127.25 E25.56519
G1 X126.416 Y127.914 E25.63828
G1 X124.999 Y128.1 E25.70958
G1 X54.526 Y128.095 E29.22549
G1 X53.534 Y127.879 E29.27615
G1 X52.283 Y127.255 E29.34589
G1 X51.25 Y126.222 E29.41877
G1 X50.586 Y124.915 E29.49191
G1 X50.402 Y123.534 E29.56142
G1 X50.43 Y38.129 E33.82229
G1 X50.597 Y37.063 E33.87613
G1 X51.25 Y35.778 E33.94804
G0 F3600 X51.578 Y36.016
G1 F1800 X52.516 Y35.078 E34.01422
G1 X53.706 Y34.473 E34.08082
G1 X55.001 Y34.3 E34.146
G1 X125.43 Y34.305 E37.65972
G1 X126.332 Y34.501 E37.70577
G1 X127.48 Y35.074 E37.76978
G1 X128.418 Y36.012 E37.83596
G1 X129.027 Y37.206 E37.90283
G1 X129.184 Y38.261 E37.95605
G1 X129.2 Y123.946 E42.23089
G1 X128.971 Y124.902 E42.27993
G1 X128.416 Y125.99 E42.34087
G1 X127.484 Y126.922 E42.40663
G1 X126.294 Y127.527 E42.47323
G1 X124.999 Y127.7 E42.53841
G1 X54.57 Y127.695 E46.05213
G1 X53.668 Y127.499 E46.09818
G1 X52.52 Y126.926 E46.16219
G1 X51.578 Y125.984 E46.22865
G1 X50.973 Y124.793 E46.2953
G1 X50.802 Y123.534 E46.35869
G1 X50.825 Y38.191 E50.61647
G1 X50.982 Y37.189 E50.66707
G1 X51.578 Y36.016 E50.73271
G0 F3600 X51.906 Y36.254
G1 F1800 X52.754 Y35.406 E50.79254
G1 X53.828 Y34.86 E50.85265
G1 X55.001 Y34.7 E50.91171
G1 X125.386 Y34.705 E54.42323
G1 X126.199 Y34.882 E54.46474
G1 X127.242 Y35.402 E54.52289
G1 X128.091 Y36.251 E54.58279
G1 X128.64 Y37.328 E54.6431
G1 X128.788 Y38.32 E54.69314
G1 X128.8 Y123.899 E58.96269
G1 X128.593 Y124.763 E59.00702
G1 X128.089 Y125.751 E59.06235
G1 X127.246 Y126.594 E59.12183
G1 X126.172 Y127.14 E59.18194
G1 X124.999 Y127.3 E59.241
G1 X54.614 Y127.295 E62.75252
G1 X53.801 Y127.118 E62.79403
G1 X52.758 Y126.598 E62.85218
G1 X51.906 Y125.746 E62.91229
G1 X51.36 Y124.671 E62.97244
G1 X51.202 Y123.534 E63.02971
G1 X51.22 Y38.253 E67.2844
G1 X51.367 Y37.315 E67.33177
G1 X51.906 Y36.254 E67.39114
G0 F3600 X52.234 Y36.492
G1 F1800 X52.992 Y35.734 E67.44462
G1 X53.95 Y35.247 E67.49824
G1 X55.001 Y35.1 E67.55118
G1 X125.342 Y35.105 E71.06051
G1 X126.065 Y35.262 E71.09742
G1 X127.005 Y35.731 E71.14983
G1 X127.764 Y36.49 E71.20338
G1 X128.253 Y37.45 E71.25713
G1 X128.392 Y38.379 E71.304
G1 X128.4 Y123.852 E75.56826
G1 X128.215 Y124.624 E75.60787
G1 X127.762 Y125.512 E75.6576
G1 X127.008 Y126.266 E75.7108
G1 X126.05 Y126.753 E75.76442
G1 X124.999 Y126.9 E75.81736
G1 X54.658 Y126.895 E79.32669
G1 X53.935 Y126.738 E79.3636
G1 X52.995 Y126.269 E79.41601
G1 X52.234 Y125.508 E79.4697
G1 X51.747 Y124.549 E79.52336
G1 X51.602 Y123.534 E79.57452
G1 X51.615 Y38.315 E83.82611
G1 X51.752 Y37.441 E83.87025
G1 X52.234 Y36.492 E83.92335
G0 F3600 X52.562 Y36.73
G1 F1800 X53.23 Y36.062 E83.97048
G1 X54.072 Y35.634 E84.0176
G1 X55.001 Y35.5 E84.06443
G1 X125.299 Y35.505 E87.57161
G1 X125.931 Y35.642 E87.60387
G1 X126.768 Y36.06 E87.65055
G1 X127.438 Y36.73 E87.69782
G1 X127.866 Y37.571 E87.7449
G1 X127.996 Y38.438 E87.78864
G1 X128 Y123.805 E92.04762
G1 X127.837 Y124.485 E92.0825
G1 X127.435 Y125.273 E92.12664
G1 X126.77 Y125.938 E92.17356
G1 X125.928 Y126.366 E92.22068
G1 X124.999 Y126.5 E92.26751
G1 X54.701 Y126.495 E95.77469
G1 X54.069 Y126.358 E95.80695
G1 X53.232 Y125.94 E95.85363
G1 X52.562 Y125.27 E95.9009
G1 X52.134 Y124.427 E95.94807
G1 X52.002 Y123.534 E95.9931
G1 X52.01 Y38.377 E100.2416
G1 X52.137 Y37.567 E100.28251
G1 X52.562 Y36.73 E100.32934
G0 F3600 X53.218 Y37.206
G1 F1800 X53.706 Y36.718 E100.36377
G1 X54.319 Y36.407 E100.39806
G1 X55.001 Y36.3 E100.43251
G1 X125.256 Y36.305 E103.93754
G1 X125.662 Y36.402 E103.95837
G1 X126.294 Y36.718 E103.99362
G1 X126.782 Y37.206 E104.02805
G1 X127.093 Y37.819 E104.06234
G1 X127.2 Y38.498 E104.09664
G1 X127.2 Y123.711 E108.34793
G1 X127.081 Y124.207 E108.37338
G1 X126.781 Y124.795 E108.40631
G1 X126.294 Y125.282 E108.44067
G1 X125.681 Y125.593 E108.47497
G1 X124.999 Y125.7 E108.50941
G1 X54.744 Y125.695 E112.01444
G1 X54.338 Y125.598 E112.03527
G1 X53.706 Y125.282 E112.07052
G1 X53.218 Y124.794 E112.10495
G1 X52.905 Y124.177 E112.13947
G1 X52.802 Y123.534 E112.17196
G1 X52.8 Y38.501 E116.41427
G1 X52.907 Y37.819 E116.44871
G1 X53.218 Y37.206 E116.48301
G0 F3600 X52.89 Y36.968
G1 F1800 X53.468 Y36.39 E116.52379
G1 X54.194 Y36.021 E116.56442
G1 X55.001 Y35.9 E116.60513
G1 X125.256 Y35.905 E120.11016
G1 X125.797 Y36.022 E120.13778
G1 X126.531 Y36.389 E120.17872
G1 X127.11 Y36.968 E120.21957
G1 X127.479 Y37.694 E120.2602
G1 X127.6 Y38.498 E120.30077
G1 X127.6 Y123.758 E124.5544
G1 X127.459 Y124.346 E124.58457
G1 X127.108 Y125.034 E124.62311
G1 X126.532 Y125.61 E124.66375
G1 X125.806 Y125.979 E124.70438
G1 X124.999 Y126.1 E124.74509
G1 X54.744 Y126.095 E128.25012
G1 X54.203 Y125.978 E128.27774
G1 X53.469 Y125.611 E128.31868
G1 X52.89 Y125.032 E128.35953
G1 X52.519 Y124.302 E128.40038
G1 X52.402 Y123.534 E128.43914
G1 X52.405 Y38.439 E132.68455
G1 X52.522 Y37.693 E132.72222
G1 X52.89 Y36.968 E132.76279
G1 F1500 E126.26279
;MESH:Tapa.STL
G0 F3600 X53.419 Y38.532
G0 X72.518 Y86.582
G0 X72.99 Y95.389
G0 X72.569 Y95.389
;TYPE:WALL-INNER
G1 F1500 E132.76279
G1 F1800 X72.32 Y95.582 E132.7785
G1 X72.088 Y95.628 E132.7903
G1 X69.148 Y95.628 E132.93698
G1 X68.916 Y95.582 E132.94878
G1 X68.667 Y95.388 E132.96453
G1 X68.548 Y95.114 E132.97943
G1 X68.548 Y87.008 E133.38384
G1 X68.657 Y86.663 E133.40189
G1 X68.8 Y86.519 E133.41202
G1 X69.026 Y86.409 E133.42456
G1 X72.123 Y86.408 E133.57907
G1 X72.429 Y86.514 E133.59522
G1 X72.574 Y86.655 E133.60531
G1 X72.688 Y87.008 E133.62382
G1 X72.688 Y95.113 E134.02818
G1 X72.569 Y95.389 E134.04318
G0 F3600 X72.99 Y95.389
G0 X73.402 Y98.398
G0 X77.534 Y98.47
G0 X77.534 Y98.045
G1 F1800 X77.353 Y98.14 E134.05337
G1 X77.168 Y98.168 E134.06271
G1 X74.228 Y98.168 E134.20939
G1 X74.043 Y98.14 E134.21872
G1 X73.786 Y97.975 E134.23396
G1 X73.675 Y97.803 E134.24417
G1 X73.63 Y97.622 E134.25348
G1 X73.628 Y87.008 E134.78301
G1 X73.742 Y86.655 E134.80152
G1 X73.887 Y86.514 E134.81161
G1 X74.196 Y86.408 E134.8279
G1 X79.777 Y86.411 E135.10634
G1 X79.923 Y86.447 E135.11384
G1 X80.115 Y86.566 E135.12511
G1 X80.211 Y86.68 E135.13255
G1 X80.308 Y86.911 E135.14505
G1 X80.306 Y92.541 E135.42593
G1 X80.212 Y92.815 E135.44038
G1 X80.117 Y92.928 E135.44775
G1 X79.909 Y93.054 E135.45988
G1 X79.708 Y93.088 E135.47005
G1 X77.768 Y93.088 E135.56684
G1 X77.766 Y97.622 E135.79304
G1 X77.721 Y97.802 E135.8023
G1 X77.534 Y98.045 E135.81759
G0 F3600 X77.534 Y98.47
G0 X67.258 Y98.47
G0 X67.258 Y98.114
G1 F1800 X67.008 Y98.168 E135.83035
G1 X64.015 Y98.166 E135.97968
G1 X63.765 Y98.087 E135.99276
G1 X63.612 Y97.958 E136.00274
G1 X63.5 Y97.763 E136.01396
G1 X63.468 Y97.568 E136.02382
G1 X63.474 Y86.922 E136.55495
G1 X63.603 Y86.627 E136.57101
G1 X63.818 Y86.462 E136.58453
G1 X64.023 Y86.409 E136.5951
G1 X67.085 Y86.412 E136.74786
G1 X67.356 Y86.519 E136.7624
G1 X67.499 Y86.663 E136.77252
G1 X67.608 Y87.008 E136.79057
G1 X67.606 Y97.622 E137.32011
G1 X67.561 Y97.802 E137.32936
G1 X67.414 Y98.011 E137.34211
G1 X67.258 Y98.114 E137.35144
G0 F3600 X67.258 Y98.47
G0 X67.838 Y99.082
G0 X68.322 Y111.298
G0 X68.798 Y110.957
G1 F1800 X68.656 Y110.812 E137.36156
G1 X68.55 Y110.52 E137.37706
G1 X68.548 Y99.908 E137.9065
G1 X68.621 Y99.62 E137.92132
G1 X68.742 Y99.465 E137.93113
G1 X68.963 Y99.336 E137.9439
G1 X69.148 Y99.308 E137.95323
G1 X72.088 Y99.308 E138.09991
G1 X72.273 Y99.336 E138.10924
G1 X72.454 Y99.431 E138.11944
G1 X72.641 Y99.673 E138.1347
G1 X72.686 Y99.854 E138.144
G1 X72.688 Y104.388 E138.37021
G1 X78.708 Y104.388 E138.67055
G1 X78.71 Y99.854 E138.89675
G1 X78.755 Y99.673 E138.90605
G1 X78.942 Y99.431 E138.92131
G1 X79.123 Y99.336 E138.93151
G1 X79.308 Y99.308 E138.94084
G1 X82.302 Y99.31 E139.09022
G1 X82.571 Y99.402 E139.1044
G1 X82.707 Y99.52 E139.11338
G1 X82.81 Y99.695 E139.12351
G1 X82.848 Y99.908 E139.13431
G1 X82.848 Y101.848 E139.23109
G1 X102.588 Y101.848 E140.21593
G1 X102.82 Y101.893 E140.22772
G1 X103.068 Y102.087 E140.24343
G1 X103.188 Y102.448 E140.2624
G1 X103.186 Y110.52 E140.66512
G1 X103.112 Y110.762 E140.67774
G1 X102.987 Y110.917 E140.68768
G1 X102.716 Y111.068 E140.70316
G1 X69.076 Y111.068 E142.38146
G1 X68.798 Y110.957 E142.3964
G0 F3600 X68.798 Y111.37
G0 X63.766 Y111.37
G0 X63.766 Y110.988
G1 F1800 X63.559 Y110.788 E142.41076
G1 X63.474 Y110.554 E142.42318
G1 X63.468 Y99.817 E142.95885
G1 X63.546 Y99.61 E142.96988
G1 X63.765 Y99.389 E142.98541
G1 X64.015 Y99.31 E142.99849
G1 X67.008 Y99.308 E143.14781
G1 X67.258 Y99.362 E143.16057
G1 X67.414 Y99.465 E143.16989
G1 X67.535 Y99.62 E143.17971
G1 X67.608 Y99.908 E143.19453
G1 X67.606 Y110.52 E143.72396
G1 X67.5 Y110.812 E143.73946
G1 X67.358 Y110.957 E143.74959
G1 X67.112 Y111.068 E143.76305
G1 X64.004 Y111.065 E143.91811
G1 X63.766 Y110.988 E143.93059
G0 F3600 X63.766 Y111.37
G0 X67.838 Y111.298
G0 X68.322 Y99.082
G0 X83.078 Y99.082
G0 X83.078 Y101.139
G0 X90.228 Y101.01
G0 X90.228 Y100.588
G1 F1800 X89.951 Y100.708 E143.94565
G1 X86.928 Y100.708 E144.09647
G1 X86.568 Y100.588 E144.1154
G1 X86.374 Y100.339 E144.13115
G1 X86.328 Y100.108 E144.1429
G1 X86.333 Y94.543 E144.42054
G1 X86.411 Y94.321 E144.43228
G1 X86.634 Y94.104 E144.4478
G1 X86.876 Y94.03 E144.46043
G1 X89.868 Y94.028 E144.6097
G1 X90.156 Y94.101 E144.62452
G1 X90.311 Y94.222 E144.63433
G1 X90.414 Y94.378 E144.64366
G1 X90.468 Y94.628 E144.65642
G1 X90.468 Y100.108 E144.92982
G1 X90.422 Y100.339 E144.94157
G1 X90.228 Y100.588 E144.95731
G0 F3600 X90.228 Y101.01
G0 X90.698 Y93.802
G0 X90.156 Y93.015
G1 F1800 X89.868 Y93.088 E144.97214
G1 X86.876 Y93.086 E145.12141
G1 X86.634 Y93.012 E145.13403
G1 X86.411 Y92.795 E145.14956
G1 X86.334 Y92.576 E145.16114
G1 X86.328 Y86.911 E145.44377
G1 X86.425 Y86.68 E145.45627
G1 X86.655 Y86.473 E145.4717
G1 X86.893 Y86.408 E145.48401
G1 X89.959 Y86.414 E145.63698
G1 X90.265 Y86.557 E145.65383
G1 X90.404 Y86.737 E145.66517
G1 X90.464 Y86.932 E145.67535
G1 X90.468 Y92.579 E145.95708
G1 X90.381 Y92.801 E145.96898
G1 X90.156 Y93.015 E145.98447
G0 F3600 X90.156 Y93.39
G0 X93.722 Y100.938
G0 X97.848 Y101.01
G0 X97.848 Y100.588
G1 F1800 X97.571 Y100.708 E145.99953
G1 X94.548 Y100.708 E146.15035
G1 X94.188 Y100.588 E146.16928
G1 X93.994 Y100.339 E146.18503
G1 X93.948 Y100.108 E146.19678
G1 X93.948 Y94.628 E146.47018
G1 X94.002 Y94.378 E146.48294
G1 X94.155 Y94.174 E146.49566
G1 X94.463 Y94.028 E146.51267
G1 X97.567 Y94.028 E146.66753
G1 X97.848 Y94.148 E146.68277
G1 X97.968 Y94.268 E146.69124
G1 X98.056 Y94.433 E146.70057
G1 X98.088 Y94.628 E146.71042
G1 X98.088 Y100.108 E146.98382
G1 X98.042 Y100.339 E146.99557
G1 X97.848 Y100.588 E147.01132
G0 F3600 X97.848 Y101.01
G0 X101.898 Y95.93
G0 X101.898 Y95.565
G1 F1800 X101.672 Y95.366 E147.02634
G1 X101.595 Y95.209 E147.03507
G1 X101.568 Y95.028 E147.0442
G1 X101.572 Y86.932 E147.44811
G1 X101.632 Y86.737 E147.45829
G1 X101.872 Y86.485 E147.47565
G1 X102.099 Y86.411 E147.48756
G1 X112.735 Y86.408 E148.01819
G1 X113.061 Y86.527 E148.03551
G1 X113.215 Y86.698 E148.04699
G1 X113.3 Y86.934 E148.0595
G1 X113.3 Y95.048 E148.46431
G1 X113.197 Y95.365 E148.48094
G1 X113.077 Y95.495 E148.48977
G1 X112.77 Y95.628 E148.50646
G1 X102.084 Y95.623 E149.03959
G1 X101.898 Y95.565 E149.04931
G0 F3600 X101.898 Y95.93
G0 X103.911 Y102.239
G0 X103.902 Y111.298
G0 X106.442 Y113.838
G0 X110.56 Y113.91
G0 X110.56 Y113.495
G1 F1800 X110.286 Y113.604 E149.06402
G1 X107.191 Y113.604 E149.21843
G1 X107.044 Y113.565 E149.22602
G1 X106.818 Y113.406 E149.2398
G1 X106.668 Y113.083 E149.25757
G1 X106.668 Y111.068 E149.3581
G1 X104.655 Y111.068 E149.45853
G1 X104.421 Y110.985 E149.47091
G1 X104.204 Y110.762 E149.48644
G1 X104.13 Y110.52 E149.49906
G1 X104.128 Y99.908 E150.0285
G1 X104.158 Y99.718 E150.0381
G1 X104.354 Y99.438 E150.05515
G1 X104.524 Y99.343 E150.06486
G1 X104.728 Y99.308 E150.07519
G1 X106.668 Y99.308 E150.17198
G1 X106.668 Y97.368 E150.26876
G1 X106.714 Y97.137 E150.28051
G1 X106.908 Y96.888 E150.29626
G1 X107.185 Y96.768 E150.31132
G1 X110.208 Y96.768 E150.46214
G1 X110.568 Y96.888 E150.48107
G1 X110.762 Y97.137 E150.49682
G1 X110.808 Y97.368 E150.50857
G1 X110.808 Y113.13 E151.29494
G1 X110.688 Y113.368 E151.30824
G1 X110.56 Y113.495 E151.31723
G0 F3600 X110.56 Y113.91
G0 X115.547 Y111.37
G0 X115.547 Y111.01
G1 F1800 X115.334 Y111.067 E151.32823
G1 X112.348 Y111.068 E151.47721
G1 X112.116 Y111.022 E151.48901
G1 X111.867 Y110.828 E151.50475
G1 X111.748 Y110.554 E151.51966
G1 X111.748 Y99.908 E152.05079
G1 X111.868 Y99.547 E152.06977
G1 X112.117 Y99.354 E152.08549
G1 X112.348 Y99.308 E152.09724
G1 X115.356 Y99.308 E152.24731
G1 X115.528 Y99.357 E152.25623
G1 X115.682 Y99.455 E152.26534
G1 X115.808 Y99.608 E152.27522
G1 X115.888 Y99.908 E152.29071
G1 X115.886 Y110.52 E152.82015
G1 X115.78 Y110.812 E152.83565
G1 X115.547 Y111.01 E152.8509
G0 F3600 X115.547 Y111.37
G0 X120.631 Y111.37
G0 X120.631 Y111.008
G1 F1800 X120.448 Y111.063 E152.86044
G1 X117.356 Y111.068 E153.0147
G1 X117.078 Y110.957 E153.02963
G1 X116.936 Y110.812 E153.03976
G1 X116.83 Y110.52 E153.05525
G1 X116.828 Y99.908 E153.58469
G1 X116.908 Y99.608 E153.60018
G1 X117.127 Y99.388 E153.61567
G1 X117.352 Y99.312 E153.62751
G1 X120.448 Y99.313 E153.78197
G1 X120.631 Y99.368 E153.79151
G1 X120.821 Y99.513 E153.80343
G1 X120.968 Y99.794 E153.81925
G1 X120.968 Y110.582 E154.35747
G1 X120.821 Y110.863 E154.37329
G1 X120.631 Y111.008 E154.38521
G0 F3600 X120.631 Y111.37
G0 X124.931 Y124.601
G0 X124.955 Y124.9
G1 F1800 X125.428 Y124.822 E154.40913
G1 X125.816 Y124.627 E154.4308
G1 X126.128 Y124.315 E154.45281
G1 X126.333 Y123.91 E154.47546
G1 X126.4 Y123.636 E154.48953
G1 X126.4 Y38.541 E158.73494
G1 X126.322 Y38.068 E158.75885
G1 X126.128 Y37.682 E158.78041
G1 X125.815 Y37.372 E158.80238
G1 X125.411 Y37.164 E158.82505
G1 X125.138 Y37.1 E158.83904
G1 X55.039 Y37.1 E162.3363
G1 X54.568 Y37.174 E162.36008
G1 X54.182 Y37.372 E162.38173
G1 X53.872 Y37.682 E162.4036
G1 X53.675 Y38.068 E162.42522
G1 X53.6 Y38.539 E162.44901
G1 X53.6 Y123.456 E166.68554
G1 X53.674 Y123.924 E166.70918
G1 X53.873 Y124.316 E166.73111
G1 X54.183 Y124.628 E166.75305
