;FLAVOR:Marlin
;TIME:1669
;Filament used: 1.56291m
;Layer height: 0.2
;MINX:52.25
;MINY:67.5
;MINZ:0.3
;MAXX:127.75
;MAXY:109.5
;MAXZ:2.9
;TARGET_MACHINE.NAME:Unknown
;Generated with Cura_SteamEngine 5.8.1
M140 S60
M105
M190 S60
M104 S200
M105
M109 S200
M82 ;absolute extrusion mode
G28 ;Home
G1 Z15.0 F6000 ;Move the platform down 15mm
;Prime the extruder
G92 E0
G1 F200 E3
G92 E0
G92 E0
G92 E0
G1 F1500 E-6.5
;LAYER_COUNT:14
;LAYER:0
M106 S255
G0 F3600 X53.617 Y68.014 Z0.3
;TYPE:SKIRT
G1 F1500 E0
G1 F1800 X54.413 Y67.618 E0.04436
G1 X55.192 Y67.504 E0.08363
G1 X124.873 Y67.5 E3.56003
G1 X125.763 Y67.682 E3.60535
G1 X126.518 Y68.08 E3.64793
G1 X126.738 Y68.249 E3.66178
G1 X127.236 Y68.867 E3.70137
G1 X127.632 Y69.663 E3.74573
G1 X127.746 Y70.442 E3.78501
G1 X127.75 Y106.623 E5.59008
G1 X127.568 Y107.513 E5.6354
G1 X127.17 Y108.268 E5.67798
G1 X127.001 Y108.488 E5.69183
G1 X126.383 Y108.986 E5.73142
G1 X125.587 Y109.382 E5.77578
G1 X124.808 Y109.496 E5.81506
G1 X55.073 Y109.5 E9.29415
G1 X54.22 Y109.313 E9.33772
G1 X53.395 Y108.871 E9.38441
G1 X53.272 Y108.768 E9.39241
G1 X52.765 Y108.137 E9.4328
G1 X52.368 Y107.337 E9.47735
G1 X52.254 Y106.558 E9.51663
G1 X52.25 Y70.377 E11.32171
G1 X52.432 Y69.487 E11.36703
G1 X52.83 Y68.732 E11.40961
G1 X52.999 Y68.512 E11.42345
G1 X53.617 Y68.014 E11.46305
G0 F3600 X53.833 Y68.353
G1 F1800 X54.533 Y68.005 E11.50205
G1 X55.25 Y67.9 E11.5382
G1 X124.832 Y67.9 E15.00966
G1 X125.628 Y68.063 E15.0502
G1 X126.332 Y68.434 E15.0899
G1 X126.457 Y68.537 E15.09798
G1 X126.897 Y69.083 E15.13297
G1 X127.245 Y69.783 E15.17197
G1 X127.35 Y70.5 E15.20812
G1 X127.35 Y106.582 E17.00826
G1 X127.187 Y107.378 E17.04879
G1 X126.816 Y108.082 E17.0885
G1 X126.713 Y108.207 E17.09658
G1 X126.167 Y108.647 E17.13156
G1 X125.467 Y108.995 E17.17056
G1 X124.75 Y109.1 E17.20671
G1 X55.118 Y109.1 E20.68067
G1 X54.36 Y108.934 E20.71938
G1 X53.584 Y108.518 E20.76331
G1 X53.104 Y107.92 E20.80157
G1 X52.755 Y107.217 E20.84072
G1 X52.65 Y106.5 E20.87688
G1 X52.65 Y70.418 E22.67701
G1 X52.813 Y69.622 E22.71755
G1 X53.184 Y68.918 E22.75725
G1 X53.287 Y68.793 E22.76533
G1 X53.833 Y68.353 E22.80032
G0 F3600 X54.049 Y68.692
G1 F1800 X54.655 Y68.391 E22.83407
G1 X55.25 Y68.3 E22.8641
G1 X124.791 Y68.3 E26.33352
G1 X125.493 Y68.444 E26.36927
G1 X126.146 Y68.788 E26.40609
G1 X126.558 Y69.299 E26.43884
G1 X126.859 Y69.905 E26.4726
G1 X126.95 Y70.5 E26.50263
G1 X126.95 Y106.541 E28.30072
G1 X126.806 Y107.243 E28.33647
G1 X126.462 Y107.896 E28.3733
G1 X125.951 Y108.308 E28.40604
G1 X125.345 Y108.609 E28.4398
G1 X124.75 Y108.7 E28.46983
G1 X55.163 Y108.7 E31.94154
G1 X54.497 Y108.554 E31.97556
G1 X53.847 Y108.205 E32.01236
G1 X53.442 Y107.701 E32.04462
G1 X53.141 Y107.095 E32.07838
G1 X53.05 Y106.5 E32.10841
G1 X53.05 Y70.459 E33.9065
G1 X53.194 Y69.757 E33.94225
G1 X53.538 Y69.104 E33.97908
G1 X54.049 Y68.692 E34.01182
G0 F3600 X54.227 Y69.05
G1 F1800 X54.776 Y68.777 E34.04241
G1 X55.25 Y68.7 E34.06637
G1 X124.75 Y68.7 E37.53374
G1 X125.356 Y68.824 E37.5646
G1 X125.888 Y69.105 E37.59462
G1 X126.2 Y69.477 E37.61884
G1 X126.473 Y70.026 E37.64943
G1 X126.55 Y70.5 E37.67339
G1 X126.55 Y106.5 E39.46943
G1 X126.426 Y107.106 E39.50029
G1 X126.145 Y107.638 E39.53031
G1 X125.773 Y107.95 E39.55453
G1 X125.224 Y108.223 E39.58512
G1 X124.75 Y108.3 E39.60908
G1 X55.208 Y108.3 E43.07854
G1 X54.634 Y108.174 E43.10786
G1 X54.109 Y107.892 E43.13759
G1 X53.8 Y107.523 E43.16161
G1 X53.527 Y106.974 E43.1922
G1 X53.45 Y106.5 E43.21615
G1 X53.45 Y70.5 E45.0122
G1 X53.574 Y69.894 E45.04306
G1 X53.855 Y69.362 E45.07308
G1 X54.227 Y69.05 E45.0973
G0 F3600 X54.405 Y69.408
G1 F1800 X54.899 Y69.162 E45.12483
G1 X55.25 Y69.1 E45.14262
G1 X124.75 Y69.1 E48.60998
G1 X125.169 Y69.178 E48.63125
G1 X125.633 Y69.423 E48.65743
G1 X125.842 Y69.655 E48.673
G1 X126.088 Y70.149 E48.70054
G1 X126.15 Y70.5 E48.71832
G1 X126.15 Y106.5 E50.51437
G1 X126.072 Y106.919 E50.53563
G1 X125.827 Y107.383 E50.56181
G1 X125.595 Y107.592 E50.57739
G1 X125.101 Y107.838 E50.60492
G1 X124.75 Y107.9 E50.6227
G1 X55.208 Y107.9 E54.09217
G1 X54.727 Y107.785 E54.11684
G1 X54.367 Y107.577 E54.13758
G1 X54.158 Y107.345 E54.15316
G1 X53.912 Y106.851 E54.18069
G1 X53.85 Y106.5 E54.19848
G1 X53.85 Y70.5 E55.99452
G1 X53.928 Y70.081 E56.01579
G1 X54.173 Y69.617 E56.04196
G1 X54.405 Y69.408 E56.05754
G0 F3600 X54.595 Y69.76
G1 F1800 X54.457 Y69.899 E56.06731
G1 X54.32 Y70.162 E56.08211
G1 X54.25 Y70.5 E56.09933
G1 X54.25 Y106.5 E57.89538
G1 X54.304 Y106.773 E57.90926
G1 X54.51 Y107.155 E57.93091
G1 X54.649 Y107.293 E57.94069
G1 X54.912 Y107.43 E57.95548
G1 X55.25 Y107.5 E57.9727
G1 X124.75 Y107.5 E61.44007
G1 X125.023 Y107.446 E61.45395
G1 X125.405 Y107.24 E61.47561
G1 X125.543 Y107.101 E61.48538
G1 X125.68 Y106.838 E61.50017
G1 X125.75 Y106.5 E61.51739
G1 X125.75 Y70.5 E63.31344
G1 X125.696 Y70.227 E63.32732
G1 X125.49 Y69.845 E63.34898
G1 X125.351 Y69.707 E63.35875
G1 X125.088 Y69.57 E63.37354
G1 X124.75 Y69.5 E63.39076
G1 X55.25 Y69.5 E66.85813
G1 X54.977 Y69.554 E66.87202
G1 X54.595 Y69.76 E66.89367
G0 F3600 X55.089 Y70.381
G1 F1800 X55.25 Y70.3 E66.90266
G1 X124.75 Y70.3 E70.37003
G1 X124.869 Y70.339 E70.37628
G1 X124.95 Y70.5 E70.38527
G1 X124.95 Y106.5 E72.18132
G1 X124.911 Y106.619 E72.18757
G1 X124.75 Y106.7 E72.19656
G1 X55.25 Y106.7 E75.66393
G1 X55.131 Y106.661 E75.67017
G1 X55.05 Y106.5 E75.67917
G1 X55.05 Y70.5 E77.47521
G1 X55.089 Y70.381 E77.48146
G0 F3600 X54.709 Y70.256
G1 F1800 X54.8 Y70.104 E77.4903
G1 X55.07 Y69.943 E77.50598
G1 X55.25 Y69.9 E77.51521
G1 X124.75 Y69.9 E80.98258
G1 X124.994 Y69.959 E80.99511
G1 X125.146 Y70.05 E81.00395
G1 X125.307 Y70.32 E81.01963
G1 X125.35 Y70.5 E81.02886
G1 X125.35 Y106.5 E82.82491
G1 X125.291 Y106.744 E82.83743
G1 X125.2 Y106.896 E82.84627
G1 X124.93 Y107.057 E82.86196
G1 X124.75 Y107.1 E82.87119
G1 X55.25 Y107.1 E86.33856
G1 X55.006 Y107.041 E86.35108
G1 X54.854 Y106.95 E86.35992
G1 X54.693 Y106.68 E86.3756
G1 X54.65 Y106.5 E86.38484
G1 X54.65 Y70.5 E88.18088
G1 X54.709 Y70.256 E88.19341
G1 F1500 E81.69341
;MESH:IMUS.STL
G0 F3600 X55.664 Y70.914
G0 X57.342 Y75.084
G0 X58.04 Y76.064
G0 X59.467 Y76.942
G0 X59.418 Y76.645
;TYPE:WALL-INNER
G1 F1500 E88.19341
G1 F1800 X58.703 Y76.586 E88.2292
G1 X58.135 Y76.333 E88.26022
G1 X57.964 Y76.218 E88.2705
G1 X57.51 Y75.782 E88.30191
G1 X57.18 Y75.127 E88.3385
G1 X57.1 Y74.432 E88.3734
G1 X57.174 Y73.953 E88.39758
G1 X57.402 Y73.381 E88.4283
G1 X57.685 Y73.027 E88.45091
G1 X58.113 Y72.678 E88.47847
G1 X58.295 Y72.577 E88.48885
G1 X58.887 Y72.372 E88.52011
G1 X59.617 Y72.372 E88.55653
G1 X60.203 Y72.577 E88.5875
G1 X60.616 Y72.828 E88.61161
G1 X61.089 Y73.366 E88.64735
G1 X61.338 Y73.999 E88.68129
G1 X61.396 Y74.432 E88.70308
G1 X61.316 Y75.129 E88.73808
G1 X60.985 Y75.784 E88.7747
G1 X60.454 Y76.292 E88.81136
G1 X59.885 Y76.545 E88.84243
G1 X59.418 Y76.645 E88.86625
G0 F3600 X59.467 Y76.942
G0 X62.422 Y101.328
G0 X78.078 Y101.328
G0 X78.078 Y98.672
G0 X72.399 Y82.887
G0 X72.348 Y82.588
G1 F1800 X71.88 Y82.573 E88.88961
G1 X71.316 Y82.375 E88.91943
G1 X71.136 Y82.273 E88.92976
G1 X70.667 Y81.89 E88.95997
G1 X70.345 Y81.373 E88.99035
G1 X70.27 Y81.185 E89.00045
G1 F1904.8 X70.178 Y80.664 E89.02539
G1 F1978 X70.199 Y80.132 E89.04957
G1 F1865.3 X70.334 Y79.644 E89.07394
G1 F1800 X70.426 Y79.462 E89.08412
G1 X70.788 Y78.975 E89.11439
G1 F1836.7 X71.404 Y78.568 E89.15049
G1 F1920 X72.068 Y78.422 E89.18229
G1 F1930.3 X72.791 Y78.469 E89.21599
G1 F1846.2 X73.411 Y78.738 E89.24887
G1 F1800 X73.869 Y79.172 E89.28035
G1 X73.992 Y79.337 E89.29062
G1 X74.268 Y79.885 E89.32123
G1 X74.353 Y80.604 E89.35735
G1 X74.205 Y81.284 E89.39207
G1 X73.829 Y81.89 E89.42765
G1 X73.295 Y82.326 E89.46204
G1 X72.928 Y82.485 E89.482
G1 X72.348 Y82.588 E89.51138
G0 F3600 X72.399 Y82.887
G0 X78.414 Y79.949
G0 X78.422 Y78.672
G0 X81.415 Y78.482
G0 X81.422 Y104.328
G0 X84.078 Y104.328
G0 X86.078 Y78.328
G0 X86.15 Y76.169
G0 X85.853 Y76.169
G1 F1343.3 X85.85 Y76.854 E89.55718
G1 F1618 X85.847 Y77.539 E89.5952
G1 F1800 X85.802 Y77.733 E89.60513
G1 X85.602 Y77.985 E89.62119
G1 X85.474 Y78.057 E89.62851
G1 X85.248 Y78.1 E89.63999
G1 X83.848 Y78.1 E89.70984
G1 X83.842 Y103.588 E90.98144
G1 X83.783 Y103.774 E90.99117
G1 X83.584 Y103.998 E91.00612
G1 X83.33 Y104.1 E91.01978
G1 X82.248 Y104.1 E91.07376
G1 X81.887 Y103.981 E91.09272
G1 X81.748 Y103.833 E91.10285
G1 X81.65 Y103.552 E91.1177
G1 X81.648 Y78.1 E92.3875
G1 X73.448 Y78.101 E92.7966
G1 F1914.9 X72.12 Y78.076 E92.85889
G1 F1978 X71.201 Y78.109 E92.90064
G1 F1855.7 X70.866 Y77.963 E92.91833
G1 F1800 X70.648 Y77.59 E92.93988
G1 X70.648 Y76.5 E92.99426
G1 X70.823 Y76.075 E93.01719
G1 X71.159 Y75.9 E93.03609
G1 X85.339 Y75.9 E93.74354
G1 F1463.4 X85.776 Y76.052 E93.77193
G1 F1237.1 X85.853 Y76.169 E93.7821
G0 F3600 X86.15 Y76.169
G0 X85.917 Y75.4
G0 X85.917 Y74.534
G1 F1311.5 X85.931 Y74.091 E93.81245
G0 F3600 X86.069 Y73.323
G0 X86.954 Y72.405
G0 X87.719 Y72.133
G0 X88.531 Y72.133
G0 X89.658 Y72.658
G0 X90.182 Y73.323
G0 X90.317 Y74.091
G1 F1311.5 X90.334 Y74.513 E93.84136
G0 F3600 X90.334 Y75.4
G0 X105.828 Y75.672
G0 X106.172 Y98.328
G0 X108.828 Y98.328
G0 X109.172 Y72.672
G0 X111.828 Y72.672
G0 X118.454 Y103.203
G0 X119.118 Y104.255
G0 X123.88 Y105.63
G0 X124.148 Y105.9
G1 F1800 X124.148 Y71.1 E95.57754
G1 X55.848 Y71.1 E98.98504
G1 X55.848 Y105.9 E100.72122
G1 X124.148 Y105.9 E104.12872
G0 F3600 X123.88 Y105.63
G0 X120.48 Y104.937
G0 X120.557 Y104.645
G1 F1800 X119.862 Y104.468 E104.16451
G1 X119.339 Y104.113 E104.19604
G1 X119.005 Y103.772 E104.21985
G1 X118.728 Y103.223 E104.25053
G1 X118.668 Y103.026 E104.26081
G1 X118.595 Y102.432 E104.29067
G1 X118.65 Y102.016 E104.3116
G1 X118.901 Y101.382 E104.34562
G1 X119.154 Y101.056 E104.36621
G1 X119.693 Y100.612 E104.40105
G1 X120.408 Y100.372 E104.43867
G1 X121.117 Y100.372 E104.47405
G1 X121.703 Y100.577 E104.50502
G1 X122.118 Y100.83 E104.52927
G1 X122.589 Y101.368 E104.56494
G1 X122.822 Y101.953 E104.59636
G1 X122.896 Y102.432 E104.62054
G1 X122.824 Y103.052 E104.65168
G1 X122.615 Y103.558 E104.67899
G1 X122.231 Y104.068 E104.71084
G1 X121.716 Y104.408 E104.74163
G1 X121.278 Y104.588 E104.76525
G1 X120.557 Y104.645 E104.80134
G0 F3600 X120.48 Y104.937
G0 X113.283 Y104.4
G0 X113.283 Y104.03
G1 F1800 X113.078 Y104.1 E104.81214
G1 X96 Y104.1 E105.66417
G1 X95.639 Y103.981 E105.68313
G1 X95.5 Y103.833 E105.69326
G1 X95.402 Y103.552 E105.70811
G1 X95.4 Y79.5 E106.90807
G1 X95.575 Y79.075 E106.931
G1 X95.911 Y78.9 E106.9499
G1 X97 Y78.9 E107.00423
G1 X97.465 Y79.12 E107.02989
G1 F1855.7 X97.603 Y79.389 E107.04452
G1 F1989 X97.575 Y80.564 E107.09759
G1 F1920 X97.6 Y81.23 E107.12876
G1 F1800 X97.601 Y95.182 E107.82483
G1 F1920 X97.575 Y96.56 E107.8893
G1 X97.6 Y97.229 E107.92061
G1 F1800 X97.601 Y101.899 E108.1536
G1 X113 Y101.9 E108.92185
G1 X113.366 Y102.024 E108.94113
G1 X113.503 Y102.172 E108.9512
G1 X113.598 Y102.441 E108.96543
G1 X113.6 Y103.621 E109.0243
G1 X113.48 Y103.86 E109.03764
G1 X113.283 Y104.03 E109.05062
G0 F3600 X113.283 Y104.4
G0 X113.828 Y101.672
G0 X113.366 Y100.976
G1 F1800 X113 Y101.1 E109.0699
G1 X99 Y101.1 E109.76837
G1 X98.575 Y100.925 E109.7913
G1 X98.4 Y100.589 E109.8102
G1 X98.4 Y99.5 E109.86453
G1 X98.622 Y99.033 E109.89032
G1 X98.785 Y98.939 E109.89971
G1 X98.984 Y98.899 E109.90984
G1 F1914.9 X99.941 Y98.924 E109.95473
G1 X100.638 Y98.902 E109.98744
G1 F1800 X109.4 Y98.9 E110.42457
G1 X109.4 Y73.5 E111.69179
G1 X109.5 Y73.167 E111.70913
G1 X109.639 Y73.019 E111.71926
G1 X109.917 Y72.9 E111.73435
G1 X111 Y72.9 E111.78838
G1 X111.283 Y72.97 E111.80292
G1 X111.48 Y73.14 E111.81591
G1 X111.6 Y73.379 E111.82925
G1 X111.6 Y98.9 E113.1025
G1 X113.134 Y98.9 E113.17903
G1 X113.425 Y99.075 E113.19597
G1 X113.547 Y99.252 E113.20669
G1 X113.6 Y99.463 E113.21755
G1 X113.601 Y100.563 E113.27243
G1 X113.503 Y100.828 E113.28652
G1 X113.366 Y100.976 E113.29658
G0 F3600 X113.366 Y101.4
G0 X113.828 Y98.672
G0 X111.828 Y72.672
G0 X109.172 Y72.672
G0 X109.172 Y98.672
G0 X106.639 Y98.4
G0 X106.639 Y97.981
G1 F1800 X106.446 Y97.731 E113.31234
G1 X106.4 Y97.5 E113.32409
G1 X106.4 Y75.1 E114.44163
G1 X90.948 Y75.098 E115.21254
G1 X90.725 Y75.034 E115.22411
G1 X90.561 Y74.91 E115.23437
G1 F1545.1 X90.334 Y74.513 E115.26095
G1 F1442.9 X90.162 Y75.186 E115.30418
G1 F1371.4 X89.99 Y75.732 E115.34167
G1 F1237.1 X89.913 Y75.85 E115.35189
G1 F1469.4 X89.237 Y76.333 E115.40267
G1 F1800 X88.682 Y76.573 E115.43284
G1 X88.286 Y76.64 E115.45287
G1 X87.583 Y76.588 E115.48804
G1 X87.011 Y76.332 E115.51931
G1 F1469.4 X86.335 Y75.85 E115.57005
G1 F1237.1 X86.258 Y75.732 E115.58028
G1 F1371.4 X86.085 Y75.187 E115.61772
G1 F1440 X85.917 Y74.534 E115.65977
G1 F1541.8 X85.688 Y74.91 E115.68541
G1 F1800 X85.523 Y75.034 E115.69571
G1 X85.34 Y75.1 E115.70541
G1 X69.849 Y75.101 E116.47826
G1 X69.849 Y79.572 E116.70132
G1 F1920 X69.823 Y80.564 E116.74774
G1 X69.848 Y81.23 E116.77891
G1 F1800 X69.849 Y95.182 E117.47498
G1 F1920 X69.823 Y96.56 E117.53944
G1 F1989 X69.857 Y97.477 E117.58087
G1 F1855.7 X69.711 Y97.882 E117.6017
G1 F1800 X69.338 Y98.1 E117.62326
G1 X68.248 Y98.1 E117.67764
G1 X67.823 Y97.925 E117.70057
G1 X67.648 Y97.589 E117.71947
G1 X67.648 Y73.5 E118.92128
G1 X67.748 Y73.167 E118.93862
G1 X67.887 Y73.019 E118.94875
G1 X68.165 Y72.9 E118.96384
G1 X85.248 Y72.9 E119.81611
G1 X85.556 Y72.984 E119.83204
G1 X85.719 Y73.126 E119.84282
G1 X85.843 Y73.414 E119.85847
G1 F1614.3 X85.893 Y73.915 E119.88648
G1 F1363.6 X85.931 Y74.091 E119.89833
G1 F1493.8 X86.323 Y73.324 E119.95012
G1 F1800 X86.533 Y73.053 E119.96722
G1 X86.989 Y72.678 E119.99668
G1 X87.169 Y72.577 E120.00697
G1 X87.755 Y72.372 E120.03795
G1 X88.486 Y72.372 E120.07442
G1 X89.159 Y72.605 E120.10995
G1 X89.504 Y72.851 E120.13109
G1 X89.893 Y73.285 E120.16016
G1 F1490.7 X90.317 Y74.091 E120.21503
G1 F1361.1 X90.354 Y73.915 E120.22689
G1 F1614.3 X90.405 Y73.414 E120.25491
G1 F1800 X90.47 Y73.217 E120.26526
G1 X90.647 Y73.014 E120.27869
G1 X90.921 Y72.9 E120.2935
G1 X108 Y72.9 E121.14558
G1 X108.361 Y73.019 E121.16454
G1 X108.5 Y73.167 E121.17467
G1 X108.6 Y73.5 E121.19201
G1 X108.6 Y97.589 E122.39382
G1 X108.424 Y97.924 E122.4127
G1 X108.089 Y98.1 E122.43158
G1 X107 Y98.1 E122.48591
G1 X106.639 Y97.981 E122.50487
G0 F3600 X106.639 Y98.4
G0 X109.172 Y98.672
G0 X109.172 Y72.672
G0 X111.828 Y72.672
G0 X113.828 Y98.672
G0 X113.828 Y101.328
G0 X98.172 Y101.328
G0 X98.172 Y98.672
G0 X99.29 Y98.684
G0 X99.547 Y98.533
G1 F1846.2 X99.068 Y98.375 E122.52941
G1 F1800 X98.89 Y98.276 E122.53957
G1 X98.412 Y97.888 E122.57028
G1 X98.038 Y97.276 E122.60607
G1 F1870.1 X97.918 Y96.591 E122.63946
G1 F1904.8 X97.976 Y95.984 E122.66821
G1 F1846.2 X98.03 Y95.791 E122.67796
G1 F1818.2 X98.301 Y95.246 E122.70802
G1 F1809 X98.739 Y94.824 E122.73821
G1 F1800 X98.91 Y94.708 E122.74852
G1 X99.465 Y94.459 E122.77887
G1 X100.153 Y94.398 E122.81333
G1 X100.571 Y94.48 E122.83458
G1 X101.178 Y94.748 E122.86768
G1 X101.623 Y95.174 E122.89842
G1 X101.746 Y95.341 E122.90877
G1 X102.014 Y95.881 E122.93884
G1 X102.11 Y96.588 E122.97444
G1 X101.953 Y97.282 E123.00994
G1 X101.582 Y97.89 E123.04547
G1 X101.106 Y98.275 E123.07601
G1 X100.604 Y98.503 E123.10352
G1 F1914.9 X100 Y98.572 E123.13203
G1 F1967.2 X99.547 Y98.533 E123.15279
G0 F3600 X99.29 Y98.684
G0 X98.172 Y98.672
G0 X97.828 Y101.672
G0 X113.828 Y101.672
G0 X113.828 Y104.328
G0 X88.23 Y104.944
G0 X88.256 Y104.64
G1 F1800 X87.582 Y104.587 E123.18652
G1 X87.012 Y104.333 E123.21765
G1 X86.84 Y104.218 E123.22797
G1 X86.386 Y103.782 E123.25938
G1 X86.053 Y103.107 E123.29693
G1 X85.976 Y102.432 E123.33082
